!!!!SEGMENT: pl-cz--iii-751--002_zebrowski-marcin-jozef--sonata-pro-processione-in-es.krn
!!!cenid: 17xx:2369
!!!COM: Żebrowski, Marcin Józef
!!!COM-rismID: pe30020322
!!!CDT: 1702-1770/06/29
!!!CNT: Polish
!!!OTL: Sonata pro processione in Es
!!!PDT:
!!!AGN:
!!!YEC: Copyright 2022 Narodowy Instytut Fryderyka Chopina (https://polishscores.org)
!!!YEM: License CC-BY-4.0 (https://creativecommons.org/licenses/by/4.0)
!!!SMS-siglum: PL-CZ
!!!SMS-shelfmark: III-751
!!!SMS-shelfwork: 002 W
!!!SMS-variant:
!!!SMS-altvar:
!!!NIFC-rismSourceID: 300033529
!!!NIFC-rismChildID: 300033531
!!!NIFC-islandoraID: pl-cz:25462
!!!URL-pdf-islandora: https://repozytorium.nifc.pl/islandora/object/pl-cz%3A25462/datastream/PDF/view
!!!URL-scan: https://polish.musicsources.pl/pl/lokalizacje/galeria/rekopisy/1482 @EN{Scan on Polish Music Sources Website} @PL{Skany w portalu Dziedzictwo Muzyki Polskiej w otwartym dostępie}
!!!IIIF:
!!!ONB-nifc: UWAGA: w zbiorze 1. Sonata pro processione 001 (Adagio 1), 2. Sonata pro processione 002 (Adagio 2)
!!!AIN: 2 oboe 1 organ 1 timpa 2 violn
!!!key:
**kern	**fba	**dynam	**kern	**dynam	**kern	**dynam	**kern	**kern	**kern
*	*	*	*group2	*	*group2	*	*	*group1	*group1
*part6	*	*	*part5	*	*part4	*	*part3	*part2	*part1
*staff6	*	*	*staff5	*	*staff4	*	*staff3	*staff2	*staff1
*IGcont	*	*	*IGripn	*	*IGripn	*	*IGripn	*IGripn	*IGripn
*ICklav	*	*	*ICstr	*	*ICstr	*	*ICidio	*ICww	*ICww
*Iorgan	*	*	*Ivioln	*	*Ivioln	*	*Itimpa	*Ioboe	*Ioboe
*I"Organo	*	*	*I"Violino Primo.	*	*I"Violino Primo.	*	*I"Tympano:	*I"Oboe Secundo.	*I"Oboe Primo.
*I'org	*	*	*I'vl 2	*	*I'vl 1	*	*I'timp	*I'ob 2	*I'ob 1
*clefF4	*	*	*clefG2	*	*clefG2	*	*clefF4	*clefG2	*clefG2
*	*	*	*	*	*	*	*ITrd-2c-3	*	*
*k[b-e-a-3]	*	*	*k[b-e-a-]	*	*k[b-e-a-]	*	*k[b-e-a-]	*k[b-e-a-]	*k[b-e-a-]
*E-:	*	*	*E-:	*	*E-:	*	*E-:	*E-:	*E-:
*M3/4	*	*	*M3/4	*	*M3/4	*	*M3/4	*M3/4	*M3/4
*2\right	*	*	*	*	*	*	*	*2\right	*2\right
=1	=1	=1	=1	=1	=1	=1	=1	=1	=1
!	!	!	!	!	!LO:TX:t=P:problem:wszystkie custos użyte jako łamanie pięciolinii	!	!	!	!
!LO:TX:a:t=Solo&colon;	!	!	!	!	!LO:TX:t=P:problem:układ instrumentów wg RISM	!	!	!	!
!LO:TX:a:t=Adagio. 2.	!	!	!LO:TX:a:t=Adagio 2.	!	!LO:TX:a:t=Adagio. 2.	!	!LO:TX:t=2 Ada&colon;:rj	!LO:TX:a:t=adagio. 2	!LO:TX:a:t=2. Adagio.
8E-\L	.	.	(16G/LL	.	(16e-/LL	.	4E-/	2.g/	2.b-/
.	.	.	16B-/)	.	16B-/J)	.	.	.	.
8E-\	.	.	(16e-/	.	8.g/J	.	.	.	.
.	.	.	16B-/JJ)	.	.	.	.	.	.
8E-\	.	.	(16G/LL	.	.	.	4r	.	.
.	.	.	16B-/)	.	16e-/KL|<	.	.	.	.
8E-\	.	.	(16e-/	.	8.b-/J	.	.	.	.
.	.	.	16B-/JJ)	.	.	.	.	.	.
8E-\	.	.	(16G/LL	.	.	.	4r	.	.
.	.	.	16B-/)	.	16g/KL|<	.	.	.	.
8E-\J	.	.	(16e-/	.	[>8ee-/J	.	.	.	.
.	.	.	16B-/JJ)	.	.	.	.	.	.
=2	=2	=2	=2	=2	=2	=2	=2	=2	=2
8E-\L	.	.	(16G/LL	.	16ee-\LL]	.	4E-/	2.b-/	2.gg\
.	.	.	16B-/)	.	16b-\J|>	.	.	.	.
8E-\	.	.	(16e-/	.	[8gg\J	.	.	.	.
.	.	.	16B-/JJ)	.	.	.	.	.	.
8E-\	.	.	(16G/LL	.	16gg\LL]	.	4r	.	.
.	.	.	16B-/)	.	16ee-\J|>	.	.	.	.
8E-\	.	.	(16e-/	.	[8bb-\J	.	.	.	.
.	.	.	16B-/JJ)	.	.	.	.	.	.
8E-\	.	.	(16G/LL	.	16bb-\LL]	.	4r	.	.
.	.	.	16B-/)	.	(16gg\	.	.	.	.
8E-\J	.	.	(16e-/	.	16ee-\)	.	.	.	.
.	.	.	16B-/JJ)	.	16b-\JJ|>	.	.	.	.
=3	=3	=3	=3	=3	=3	=3	=3	=3	=3
8E-\L	x 6 4	.	(16A-/LL	.	16r	.	4E-/	2cc\	2aa-\
.	.	.	16c/)	.	16cc\|>	.	.	.	.
.	.	.	.	.	(<8qqdd-X/	.	.	.	.
!	!	!	!	!	!LO:TUP:a:problem:klamra łukowa	!	!	!	!
8E-\	.	.	(16e-/	.	24cc\LL)	.	.	.	.
.	.	.	.	.	24bn\	.	.	.	.
.	.	.	16c/JJ)	.	.	.	.	.	.
.	.	.	.	.	24cc\JJ	.	.	.	.
8E-\	.	.	(16A-/LL	.	16r	.	4E-/	.	.
.	.	.	16c/)	.	16ee-\|>	.	.	.	.
.	.	.	.	.	8qqff/	.	.	.	.
!	!	!	!	!	!LO:TUP:a:problem:klamra łukowa	!	!	!	!
8E-\	.	.	(16e-/	.	24ee-\LL	.	.	.	.
.	.	.	.	.	24ddn\	.	.	.	.
.	.	.	16c/JJ)	.	.	.	.	.	.
.	.	.	.	.	24ee-\JJ	.	.	.	.
8E-\	.	.	(16A-/LL	.	16r	.	4E-/	4cc\	4aa-\
.	.	.	16c/)	.	16aa-\|>	.	.	.	.
!	!	!	!	!	!LO:TUP:a:problem:klamra łukowa	!	!	!	!
8E-\J	.	.	(16e-/	.	24aa-\LL	.	.	.	.
.	.	.	.	.	24gg\	.	.	.	.
.	.	.	16c/JJ)	.	.	.	.	.	.
.	.	.	.	.	24aa-\JJ	.	.	.	.
=4	=4	=4	=4	=4	=4	=4	=4	=4	=4
.	.	.	.	.	8qqdd-X/	.	.	8qqdd-X/	8qbb-/
8E-\L	x 6 4	.	(16A-/LL	.	4cct\	.	4E-/	(4ccty\	(4aa-T\
.	.	.	16c/)	.	.	.	.	.	.
8E-\	.	.	(16e-/	.	.	.	.	.	.
.	.	.	16c/JJ)	.	.	.	.	.	.
8E-\	x 5 3	.	(16G/LL	.	4b-X/	.	4E-/	4b-\)	4gg\)
.	.	.	16B-/)	.	.	.	.	.	.
8E-\	.	.	(16e-/	.	.	.	.	.	.
.	.	.	16B-/JJ)	.	.	.	.	.	.
8E-\	.	.	(16G/LL	.	(16gg\LL	.	4r	4r	4r
.	.	.	16B-/)	.	16aa-\J)	.	.	.	.
8E-\J	.	.	(16e-/	.	8bb-\J	.	.	.	.
.	.	.	16B-/JJ)	.	.	.	.	.	.
=5	=5	=5	=5	=5	=5	=5	=5	=5	=5
!	!	!	!LO:LB:g=original	!	!LO:LB:g=original	!	!	!	!
8BB-/L	x x 7	.	(16d/LL	.	(16aa-\LL	.	4r	8r	8r
.	.	.	16f/)	.	16ff\	.	.	.	.
8BB-/	.	.	(16b-/	.	16dd\)	.	.	(16dd\LL	(16ff\LL
.	.	.	16f/JJ)	.	16b-\JJ	.	.	16ff\JJ)	16aa-\JJ)
8BB-/	.	.	(16d/LL	.	(16a-/LL	.	4BB-/	2ffT\	2aa-\
.	.	.	16f/)	.	16f/	.	.	.	.
8BB-/	.	.	(16b-/	.	16d/	.	.	.	.
.	.	.	16f/JJ)	.	16B-/JJ)	.	.	.	.
.	.	.	.	.	8qqB-/	.	.	.	.
8BB-/	.	.	(16d/LL	.	4A-T/	.	4BB-/	.	.
.	.	.	16f/)	.	.	.	.	.	.
8BB-/J	.	.	(16b-/	.	.	.	.	.	.
.	.	.	16f/JJ)	.	.	.	.	.	.
=6	=6	=6	=6	=6	=6	=6	=6	=6	=6
8E-\L	.	.	8G/ 8e-	.	16G/LL|<	.	4r	8r	8r
.	.	.	.	.	16e-/|<	.	.	.	.
8E-\	.	.	4G/ 4e-	.	16B-/|<	.	.	(16ee-\LL	(16gg\LL
.	.	.	.	.	16g/JJ|<	.	.	16gg\JJ)	16bb-\JJ)
8E-\	.	.	.	.	16e-/LL|<	.	4E-/	2ggt\	2bb-\
.	.	.	.	.	16b-/|<	.	.	.	.
8E-\	.	.	4G/ 4e-	.	16g/|<	.	.	.	.
.	.	.	.	.	16ee-/JJ|<	.	.	.	.
8E-\	.	.	.	.	16b-\LL|>	.	4E-/	.	.
.	.	.	.	.	16gg\|>	.	.	.	.
8E-\J	.	.	8G/ 8e-	.	16ee-\|>	.	.	.	.
.	.	.	.	.	16bb-\JJ|>	.	.	.	.
=7	=7	=7	=7	=7	=7	=7	=7	=7	=7
!LO:TX:a:t=P:problem:mixed beam	!	!	!	!	!	!	!	!	!
8B-\L	x x 7	.	(16d/LL	.	(16aa-\LL	.	4r	8r	8r
.	.	.	16f/)	.	16ff\	.	.	.	.
8BB-/	.	.	(16b-/	.	16dd\)	.	.	8ff\|>	8aa-\|>
.	.	.	16f/JJ)	.	16b-\JJ	.	.	.	.
8BB-/	.	.	(16d/LL	.	16a-/LL	.	4BB-/	2ffT\	2aa-T\
.	.	.	16f/)	.	(16f/	.	.	.	.
8BB-/	.	.	(16b-/	.	16d/	.	.	.	.
.	.	.	16f/JJ)	.	16B-/JJ)	.	.	.	.
.	.	.	.	.	8qqB-/	.	.	.	.
8BB-/	.	.	(16d/LL	.	4A-T/	.	4BB-/	.	.
.	.	.	16f/)	.	.	.	.	.	.
8BB-/J	.	.	(16b-/	.	.	.	.	.	.
.	.	.	16f/JJ)	.	.	.	.	.	.
=8	=8	=8	=8	=8	=8	=8	=8	=8	=8
!LO:LB:g=original	!	!	!	!	!	!	!	!	!
.	.	.	.	.	.	.	.	8qqff/	.
4E-\	x x 3	.	2e-/	.	8G/L|<	.	4E-/	2.ee-\	8gg\L|>
.	.	.	.	.	8b-/	.	.	.	8bb-\
4C/|<	x 6 x	.	.	.	(8a-/	.	4r	.	(8aa-\
.	.	.	.	.	8g/	.	.	.	8gg\
4AA-/|<	x 6 5	.	4c/	.	8f/	.	4r	.	8ff\
.	.	.	.	.	8e-/J)	.	.	.	8ee-\J)
=9	=9	=9	=9	=9	=9	=9	=9	=9	=9
!	!	!	!	!	!LO:TX:a:t=P:problem:mixed beam	!	!	!	!
!	!	!	!	!	!	!	!LO:TX:a:t=2	!	!LO:LB:g=original
4BB-/|<	.	.	(8.B-/L	.	8d/L|<	.	1.r	4dd\	4b-/
.	.	.	.	.	8bb-\	.	.	.	.
.	.	.	32c/LL	.	.	.	.	.	.
.	.	.	32d/JJJ)	.	.	.	.	.	.
!	!	!LO:DY:t=p.	!	!	!	!LO:DY:t=pia&colon;	!	!	!
4C/|<	x x 6	p	4e-/	.	(8aa-\	p	.	4r	4r
.	.	.	.	.	8gg\	.	.	.	.
4AA-/|<	x 6 5	.	8r	.	8ff\	.	.	4r	4r
.	.	.	8c/	.	8ee-\J)	.	.	.	.
=10	=10	=10	=10	=10	=10	=10	=10	=10	=10
!	!	!	!	!	!	!LO:DY:t=fo&colon;	!	!LO:TX:a:t=2	!LO:TX:a:t=2
4BB-/|<	.	.	(8.B-/L	.	8dd\L|>	f	.	1.r	1.r
.	.	.	.	.	8b-\	.	.	.	.
.	.	.	32c/LL	.	.	.	.	.	.
.	.	.	32d/JJJ)	.	.	.	.	.	.
4C/|<	x x 6	.	4e-/	.	(8a-\	.	.	.	.
.	.	.	.	.	8g\	.	.	.	.
4AA-/|<	x 6 5	.	8r	.	8f\	.	.	.	.
.	.	.	8c/	.	8e-\J)	.	.	.	.
=11	=11	=11	=11	=11	=11	=11	=11	=11	=11
!	!	!	!	!	!LO:LB:g=original	!	!	!	!
!	!	!	!LO:TX:a:t=P:problem:mixed beam	!	!LO:TX:a:t=P:problem:mixed beam	!	!LO:LB:g=original	!	!
8BB-/	.	.	8B-/L|>	.	8B-/L 8d/|<	.	4BB-/	.	.
!	!	!	!LO:TUP:a:problem:klamra łukowa	!	!LO:TUP:a:problem:klamra łukowa	!	!	!	!
8r	.	.	24dd\L	.	24ff\L	.	.	.	.
.	.	.	24ee-\	.	24gg\	.	.	.	.
.	.	.	24cc\JJ	.	24aan\JJ	.	.	.	.
8BB-/	.	.	8dd\L|>	.	8bb-\L	.	4BB-/	.	.
!	!	!	!LO:TUP:a:problem:klamra łukowa	!	!LO:TUP:a:problem:klamra łukowa	!	!	!	!
8r	.	.	24dd\L	.	24ff\L	.	.	.	.
.	.	.	24ee-\	.	24gg\	.	.	.	.
.	.	.	24cc\JJ	.	24aan\JJ	.	.	.	.
!	!	!	!LO:LB:g=original	!	!	!	!	!	!
8BB-/	.	.	8dd\L|>	.	8bb-\L	.	4BB-/	.	.
!	!	!	!LO:TUP:a:problem:klamra łukowa	!	!LO:TUP:a:problem:klamra łukowa	!	!	!	!
8r	.	.	24dd\L	.	24ff\L	.	.	.	.
.	.	.	24ee-\	.	24gg\	.	.	.	.
.	.	.	24cc\JJ	.	24aan\JJ	.	.	.	.
=12	=12	=12	=12	=12	=12	=12	=12	=12	=12
!	!	!	!	!	!	!	!	!LO:LB:g=original	!
!	!	!	!	!	!	!	!	!LO:TX:b:t=Solo:rj	!LO:TX:a:t=Solo&colon;:rj
4BB-/	.	.	8B-/ 8f 8dd	.	8B-/ 8f 8dd 8bb-	.	4BB-/	8r	8r
!	!	!	!	!LO:DY:a:t=p&colon;	!	!LO:DY:a:t=p&colon;	!	!	!
.	.	.	8B-/L	p	8B-/L	p	.	4dd\	(4ff\
4r	.	.	8B-/	.	8B-/	.	4r	.	.
.	.	.	8B-/	.	8B-/	.	.	(16ee-\LL	16gg\LL)
.	.	.	.	.	.	.	.	16ff\JJ)	16aa-\JJ
4r	.	.	8B-/	.	8B-/	.	4r	(16ee-T\LL	16ggt\LL
.	.	.	.	.	.	.	.	16dd\	(16ff#X\
.	.	.	8B-/J	.	8B-/J	.	.	16.ee-\)	16gg\)
.	.	.	.	.	.	.	.	.	16gg\JJ
.	.	.	.	.	.	.	.	32ee-\JJk|>	.
=13	=13	=13	=13	=13	=13	=13	=13	=13	=13
4BB-/	.	.	8B-/L	.	8B-/L	.	4BB-/	8dd\|>	8ffn\|>
.	.	.	8B-/	.	8B-/	.	.	4f/	(4dd\
4r	.	.	8B-/	.	8B-/	.	4r	.	.
.	.	.	8B-/	.	8B-/	.	.	(16g/LL	16ee-\LL
.	.	.	.	.	.	.	.	16a-/JJ)	16ff\JJ)
4r	.	.	8B-/	.	8B-/	.	4r	(16gt/LL	16ee-T\LL
.	.	.	.	.	.	.	.	16f/	(16dd\
.	.	.	8B-/J	.	8B-/J	.	.	16.g/)	16ee-\)
.	.	.	.	.	.	.	.	.	16ee-\JJ|>
.	.	.	.	.	.	.	.	32g/JJk|<	.
=14	=14	=14	=14	=14	=14	=14	=14	=14	=14
.	.	.	.	.	.	.	.	8qqg/	8qqee-/
4BB-/	.	.	4B-/ 4d 4b-	.	4B-/ 4d 4b-	.	4BB-/	4f/	4dd\
4r	.	.	4r	.	4r	.	4r	4r	4r
4r	.	.	4r	.	4r	.	4r	4r	4r
=15	=15	=15	=15	=15	=15	=15	=15	=15	=15
!LO:TX:a:t=2	!	!	!LO:TX:a:t=2	!	!LO:TX:a:t=2	!	!LO:TX:a:t=3	!LO:TX:a:t=3	!LO:TX:a:t=3
1.r	.	.	1.r	.	1.r	.	1.r	2.r	1.r
=16	=16	=16	=16	=16	=16	=16	=16	=16	=16
.	.	.	.	.	.	.	.	2.r	.
=17	=17	=17	=17	=17	=17	=17	=17	=17	=17
16r	.	.	16r	.	16r	.	2.r	2.r	2.r
!LO:TX:b:t=Tutt&colon;	!	!	!	!	!	!	!	!	!
16BB-/LL|>	.	.	16B-/LL|<	.	16B-/LL|<	.	.	.	.
16C/|>	.	.	16c/|<	.	16c/|<	.	.	.	.
16D/JJ|>	.	.	16d/JJ|<	.	16d/JJ|<	.	.	.	.
16E-\LL|>	.	.	16e-/LL|<	.	16e-/LL|<	.	.	.	.
16F\|>	.	.	16f/|<	.	16f/|<	.	.	.	.
16G\|>	.	.	16g/|<	.	16g/|<	.	.	.	.
16An\JJ|>	.	.	16an/JJ|<	.	16an/JJ|<	.	.	.	.
16B-\LL|>	.	.	16b-/LL|<	.	16b-/LL|<	.	.	.	.
16A-X\|>	.	.	16a-X/|<	.	16a-X/|<	.	.	.	.
16G\|>	.	.	16g/|<	.	16g/|<	.	.	.	.
16F\JJ|>	.	.	16f/JJ|<	.	16f/JJ|<	.	.	.	.
=18	=18	=18	=18	=18	=18	=18	=18	=18	=18
!LO:LB:g=original	!	!	!	!	!LO:LB:g=original	!	!	!	!
!LO:TX:b:t=Solo	!	!	!	!	!LO:TUP:a:problem:klamra łukowa	!	!	!	!
.	.	.	.	.	8qqf/	.	.	.	.
8E-\L	.	.	4G/ 4e-	.	24e-/LL	.	4E-/	2b-\	[2.gg\
.	.	.	.	.	24d/	.	.	.	.
.	.	.	.	.	24e-/JJ	.	.	.	.
8E-\	.	.	.	.	4gg\	.	.	.	.
8E-\	.	.	4r	.	.	.	4r	.	.
8E-\	.	.	.	.	(16ff\LL	.	.	.	.
.	.	.	.	.	16ee-\JJ)	.	.	.	.
.	.	.	.	.	8qff/	.	.	.	.
8E-\	x x 5\	.	4r	.	(16ee-\LL	.	4r	(8bn\L	.
.	.	.	.	.	16dd\)	.	.	.	.
8E-\J	x x 6	.	.	.	(16dd\	.	.	8cc\J)	.
.	.	.	.	.	16cc\JJ)	.	.	.	.
=19	=19	=19	=19	=19	=19	=19	=19	=19	=19
8E-\L	x x 6	.	8e-/	.	(16bn\LL	.	4E-/	2cc\	2.gg\]
.	.	.	.	.	16cc\JJ)	.	.	.	.
8E-\	.	.	4gg\	.	4ee-\	.	.	.	.
8E-\	.	.	.	.	.	.	4r	.	.
8E-\	.	.	(16ff\LL	.	(16dd\LL	.	.	.	.
.	.	.	16ee-\JJ)	.	16cc\JJ)	.	.	.	.
8E-\	.	.	(16ee-T\LL	.	(16ccT\LL	.	4r	(8cc\L	.
.	.	.	16dd\)	.	16b-X\)	.	.	.	.
8En\J	x 6 5\	.	(16ddt\	.	(16b-T\	.	.	8b-X\J)	.
.	x x 3	.	16cc\JJ)	.	16an\JJ)	.	.	.	.
=20	=20	=20	=20	=20	=20	=20	=20	=20	=20
!	!	!	!LO:LB:g=original	!	!	!	!	!	!
.	.	.	.	.	.	.	.	8qqb-/	.
8F\L	x x n	.	(16cc\LL	.	(16an/LL	.	1.r	4an/	4ff\
.	.	.	16an\)	.	16f/J	.	.	.	.
8F\	.	.	(16a\	.	8.cc/J)	.	.	.	.
.	.	.	16cc\JJ)	.	.	.	.	.	.
8F\	.	.	(16a\LL	.	.	.	.	4r	4r
.	.	.	16cc\)	.	16an\KL	.	.	.	.
8F\	.	.	(16a\	.	[8ee-\J	.	.	.	.
.	.	.	16cc\JJ)	.	.	.	.	.	.
8F\	x x 7	.	16cc\LL	.	(16ee-\LL]	.	.	4r	4r
.	.	.	(16an\	.	16cc\	.	.	.	.
8F\J	.	.	16g\)	.	16b-T\	.	.	.	.
.	.	.	16f\JJ	.	16an\JJ)	.	.	.	.
=21	=21	=21	=21	=21	=21	=21	=21	=21	=21
!	!	!	!	!	!	!	!	!	!LO:LB:g=original
!	!	!	!	!	!	!	!	!	!LO:TUP:a:problem:klamra łukowa
!	!	!	!	!	!	!	!	!	!LO:TX:b:t=[[Solo]]:rj
!LO:TX:a:t=1.	!	!	!	!LO:DY:t=p&colon;	!	!	!	!LO:TX:a:t=Solo	!LO:TX:b:t=Solo
2.r	.	.	8f/L	p	8f/L	.	.	8cc\L	24aan\LL
.	.	.	.	.	.	.	.	.	24gg\
.	.	.	.	.	.	.	.	.	24ff\J
!	!	!	!	!	!	!LO:DY:t=p&colon;	!	!	!
.	.	.	8f/	.	8f/	p	.	8.aan\J	8.bb-\J
.	.	.	8f/	.	8f/	.	.	.	.
!	!	!	!	!	!	!	!	!LO:LB:g=original	!
.	.	.	.	.	.	.	.	16gg\LL	16bb-\LL
.	.	.	8f/	.	8f/	.	.	(16ff\	(16aan\
.	.	.	.	.	.	.	.	16ee-\JJ	16gg\JJ
.	.	.	8f/	.	8f/	.	.	16dd\LL	16ff\LL
.	.	.	.	.	.	.	.	16cc\	16ee-\
.	.	.	8f/J	.	8f/J	.	.	16b-\)	16dd\
.	.	.	.	.	.	.	.	16an\JJ	16cc\JJ)
=22	=22	=22	=22	=22	=22	=22	=22	=22	=22
.	.	.	.	.	.	.	.	8qqan/	8qqcc#X/
!	!	!	!	!LO:DY:t=for&colon;	!	!LO:DY:t=for&colon;	!	!	!
8F\L	x 6 4	.	(16dd\LL	f	(16b-\LL	f	4BB-/	2b-/	2dd\
.	.	.	16b-\)	.	16f\J)	.	.	.	.
8F\	.	.	(16f\	.	8.dd\J	.	.	.	.
.	.	.	16b-\JJ)	.	.	.	.	.	.
8F\	.	.	(16b-\LL	.	.	.	4r	.	.
.	.	.	16dd\)	.	16b-\KL	.	.	.	.
8F\	.	.	(16dd\	.	[8ff\J	.	.	.	.
.	.	.	16b-\JJ)	.	.	.	.	.	.
!	!	!	!LO:TX:a:t=P:problem:mixed beam	!	!	!	!	!	!
8F\	.	.	16dd\LL|>	.	16ff\LL]	.	4r	4r	4r
.	.	.	(16f/	.	(16dd\	.	.	.	.
8F\J	.	.	16e-/	.	16ccT\	.	.	.	.
.	.	.	16d/JJ)	.	16b-\JJ)	.	.	.	.
=23	=23	=23	=23	=23	=23	=23	=23	=23	=23
!	!	!	!	!LO:DY:t=p&colon;	!LO:LB:g=original	!LO:DY:t=p&colon;	!	!	!LO:TUP:a:problem:klamra łukowa
2.r	.	.	8f/L	p	8f/L	p	1.r	8dd\L	24bb-T\LL
.	.	.	.	.	.	.	.	.	24aan\
.	.	.	.	.	.	.	.	.	24bb-\J
.	.	.	8f/	.	8f/	.	.	[8bb-\J	[8ddd\J
.	.	.	8f/	.	8f/	.	.	16bb-\LL]	16ddd\LL]
.	.	.	.	.	.	.	.	16aan\	16ccc\
.	.	.	8f/	.	8f/	.	.	(16gg\	(16bb-\
.	.	.	.	.	.	.	.	16ff\JJ	16aan\JJ
.	.	.	8f/	.	8f/	.	.	16ee-\LL	16gg\LL
.	.	.	.	.	.	.	.	16dd\	16ff\
.	.	.	8f/J	.	8f/J	.	.	16cc\	16ee-\
.	.	.	.	.	.	.	.	16b-\JJ)	16dd\JJ)
=24	=24	=24	=24	=24	=24	=24	=24	=24	=24
.	.	.	.	.	.	.	.	8qqb-/	8qqdd/
!	!	!	!	!LO:DY:t=for&colon;:rj	!	!LO:DY:t=for	!	!	!
8F\L	x 7 3n	.	(16an\LL	f	(16cc\LL	f	.	2cc\	2ee-\
.	.	.	16f\)	.	16an\J)	.	.	.	.
8F\	.	.	(16cc\	.	8.ee-\J	.	.	.	.
.	.	.	16an\JJ)	.	.	.	.	.	.
8F\	.	.	(16cc\LL	.	.	.	.	.	.
.	.	.	16an\)	.	16cc\KL	.	.	.	.
8F\	.	.	(16ee-\	.	[8gg\J	.	.	.	.
.	.	.	16cc\JJ)	.	.	.	.	.	.
8F\	.	.	16ee-\LL|>	.	16gg\LL]	.	.	4r	4r
.	.	.	(16cc\	.	(16ee-\	.	.	.	.
8F\J	.	.	16b-\	.	16ddt\	.	.	.	.
.	.	.	16an\JJ)	.	16cc\JJ)	.	.	.	.
=25	=25	=25	=25	=25	=25	=25	=25	=25	=25
!	!	!	!LO:LB:g=original	!LO:DY:t=p&colon;	!	!LO:DY:t=p&colon;	!	!	!LO:TUP:a:problem:klamra łukowa
2.r	.	.	8f/L	p	8f/L	p	2.r	8cc\L	24ee-T\LL
.	.	.	.	.	.	.	.	.	24dd\
.	.	.	.	.	.	.	.	.	24ee-\J
.	.	.	8f/	.	8f/	.	.	8.aan\J	[8ccc\J
.	.	.	8f/	.	8f/	.	.	.	16ccc\LL]
.	.	.	.	.	.	.	.	16gg\LL	16bb-\
.	.	.	8f/	.	8f/	.	.	16ff\	(16aan\
.	.	.	.	.	.	.	.	(16ee-\JJ	16gg\JJ
.	.	.	8f/	.	8f/	.	.	16dd\LL	16ff\LL
.	.	.	.	.	.	.	.	16cc\	16ee-\
.	.	.	8f/J	.	8f/J	.	.	16b-\)	16dd\
.	.	.	.	.	.	.	.	16an\JJ	16cc\JJ)
=26	=26	=26	=26	=26	=26	=26	=26	=26	=26
!	!	!	!	!	!	!LO:DY:t=for	!	!	!LO:LB:g=original
8BB-/L	.	.	8b-\|>	.	8dd\|>	f	4BB-/	8b-/|<	8dd\|>
!	!	!	!	!LO:DY:a:t=for	!	!	!	!	!
8BB-/	.	.	4dd\	f	(4ff\	.	.	(4dd\	(4ff\
8BB-/	.	.	.	.	.	.	4r	.	.
8BB-/	.	.	(4ee-\	.	4gg\	.	.	4ee-\	4gg\
8BB-/	x x 4	.	.	.	.	.	4r	.	.
.	x 7nr x	.	.	.	.	.	.	.	.
8BB-/J	x x 2	.	8cc\)	.	8aan\)	.	.	8cc\)	8aan\)
=27	=27	=27	=27	=27	=27	=27	=27	=27	=27
!LO:LB:g=original	!	!	!	!	!LO:TUP:a:problem:klamra łukowa	!	!LO:LB:g=original	!	!
8BB-/L	x x 3	.	8dd\|>	.	24bb-\LL	.	4BB-/	8dd\|>	8bb-\
.	.	.	.	.	24aan\	.	.	.	.
.	.	.	.	.	24gg\J	.	.	.	.
8BB-/	.	.	4dd\	.	(8ff\J	.	.	(4dd\	(4ff\
8BB-/	.	.	.	.	4gg\	.	4r	.	.
8BB-/	.	.	(4ee-\	.	.	.	.	4ee-\	4gg\
8BB-/	x 6 4	.	.	.	8aan\)	.	4r	.	.
!	!	!	!	!	!	!	!	!	!LO:SIC:v:o=8aa-\)
8BB-/J	x 7nr 4	.	8cc\)	.	8ryy	.	.	8cc\)	8aan\)
=28	=28	=28	=28	=28	=28	=28	=28	=28	=28
!LO:TX:a:t=P:problem:mixed beam	!	!	!	!	!	!	!	!LO:LB:g=original	!
8BB-\L	x 8 3	.	8dd\	.	(16bb-\LL	.	2.r	(8dd\L	(16bb-\LL
.	.	.	.	.	16ff\	.	.	.	16ff\
8E-\	.	.	4b-\	.	16gg\)	.	.	8ee-\J)	(16gg\)
.	.	.	.	.	16b-\JJ|>	.	.	.	16b-\JJ)
8F\	x 6nr 4	.	.	.	4f/	.	.	(8dd\L	4f/
8F\	.	.	16an/LL	.	.	.	.	16cc\L)	.
.	.	.	16g/JJ	.	.	.	.	16b-\JJ|>	.
.	.	.	.	.	8qqdd/	.	.	.	8qqdd/
8FF/	.	.	4at/	.	4ccT\	.	.	4ant/	4ccT\
8FF/J	x 7 n	.	.	.	.	.	.	.	.
=29	=29	=29	=29	=29	=29	=29	=29	=29	=29
4BB-/	.	.	8b-\L|>	.	8b-\L|>	.	4BB-/	4b-/	4b-\
.	.	.	(16.cc\L	.	(16.aa-T\L	.	.	.	.
!	!	!	!	!	!LO:SIC:v:t=custos cc	!	!	!	!
.	.	.	32dd\JJk)	.	32bb-\JJk)	.	.	.	.
4r	.	.	8dd\L|>	.	8ff\L|>	.	4r	4r	4r
.	.	.	(16.dd\L	.	16.ffT\L	.	.	.	.
.	.	.	32ee-\JJk)	.	32gg\JJk	.	.	.	.
4Fn\	x 7 3	.	8.an\L	.	(8.cc\L	.	4r	(8.an/L	8.cc\L
.	.	.	(32b-\LL	.	32dd\LL	.	.	32b-/LL	(32dd\LL
.	.	.	32cc\JJJ)	.	32ee-\JJJ)	.	.	32cc/JJJ)	32ee-\JJJ)
=30	=30	=30	=30	=30	=30	=30	=30	=30	=30
4B-\	.	.	8b-\L|>	.	8dd\L|>	.	4BB-/	4b-/	4dd\
.	.	.	16.cc\L	.	(16.aant\L	.	.	.	.
.	.	.	32dd\JJk	.	32bb-\JJk)	.	.	.	.
4r	.	.	8dd\L|>	.	8ff\L|>	.	4r	4r	4r
.	.	.	(16.dd\L	.	(16.ffT\L	.	.	.	.
.	.	.	32ee-\JJk)	.	32gg\JJk)	.	.	.	.
4F\	x 7 n	.	(8.an\L	.	(8.cc\L	.	4r	(8.an/L	(8.cc\L
.	.	.	32b-\LL	.	32dd\LL	.	.	32b-/LL	32dd\LL
.	.	.	32cc\JJJ)	.	32ee-\JJJ)	.	.	32cc/JJJ)	32ee-\JJJ)
=31	=31	=31	=31	=31	=31	=31	=31	=31	=31
8B-\L	.	.	8b-\L|>	.	(16dd\LL	.	4BB-/	8.b-\L	8dd\L|>
.	.	.	.	.	16b-\)	.	.	.	.
8E-\J	.	.	(16gg\L	.	(16bb-\	.	.	.	8gg\
.	.	.	16ee-\JJ)	.	16gg\JJ)	.	.	16ee-\Jk	.
4F\	x 6 4	.	(16dd\LL	.	(16ff\LL	.	4r	(8dd\L	(8ff\
.	.	.	16b-\)	.	16dd\)	.	.	.	.
.	x x 7	.	(16cc\	.	(16ee-\	.	.	8cc\	8ee-\
.	x x 3	.	16e-\JJ)	.	16cc\JJ)	.	.	.	.
4FF/	x 6n 4	.	(16f/LL	.	(16dd\LL	.	4E-/	8b-\	8dd\
.	.	.	16d/)	.	16b-\)	.	.	.	.
.	x 7nr 3	.	(16e-/	.	(16cc\	.	.	8an\J)	8cc\J)
.	.	.	16c/JJ)	.	16an\JJ)	.	.	.	.
=32	=32	=32	=32	=32	=32	=32	=32	=32	=32
!	!	!	!	!	!LO:SIC:v:o=8qqa-/	!	!	!LO:SIC:v:o=8qqa-/	!
.	.	.	8qqc/	.	8qqan/	.	.	8qqan/	8qqcc/
4BB-/	.	.	4d/	.	4b-\	.	4BB-/	4b-/	4b-/
4r	.	.	4r	.	4r	.	4r	4r	4r
4r	.	.	4r	.	4r	.	4r	4r	4r
=33	=33	=33	=33	=33	=33	=33	=33	=33	=33
!	!	!	!	!	!	!	!	!	!LO:LB:g=original
!	!	!	!LO:TX:a:t=1.	!	!LO:TX:a:t=1.	!	!	!	!LO:TX:a:t=1.
2.r	.	.	2.r	.	2.r	.	2.r	2.r	2.r
=34	=34	=34	=34	=34	=34	=34	=34	=34	=34
!	!	!	!	!	!	!LO:DY:t=for	!	!	!
8B-\L	.	.	8b-\L|>	.	(16dd\LL	f	4BB-/	8.b-\L	8dd\L|>
.	.	.	.	.	16b-\)	.	.	.	.
8E-\J	.	.	(16gg\L	.	(16bb-\	.	.	.	8gg\
.	.	.	16ee-\JJ)	.	16gg\JJ)	.	.	16ee-\Jk	.
4F\	x 6 4	.	(16dd\LL	.	(16ff\LL	.	4r	(8dd\L	(8ff\
.	.	.	16b-\)	.	16dd\)	.	.	.	.
.	x 7 3n	.	(16cc\	.	(16ee-\	.	.	8cc\	8ee-\
.	.	.	16e-\JJ)	.	16cc\JJ)	.	.	.	.
4FF/	x 6 4	.	(16f/LL	.	(16dd\LL	.	4E-/	8b-\)	8dd\
.	.	.	16d/)	.	16b-\)	.	.	.	.
.	x 5 3n	.	(16e-/	.	(16cc\	.	.	8an\J	8cc\J)
.	.	.	16c/JJ)	.	16an\JJ)	.	.	.	.
=35	=35	=35	=35	=35	=35	=35	=35	=35	=35
!	!	!	!	!	!LO:LB:g=original	!	!	!	!
8BB-/L	.	.	8d/	.	8b-/	.	4BB-/	8b-/	8b-/
8BB-/	.	.	4d/	.	4f/	.	.	4dd\	4ff\
8BB-/	.	.	.	.	.	.	4BB-/	.	.
8BB-/	.	.	[8e-/	.	[8g/	.	.	4ee-\	4gg\
8BB-/	x 6 4	.	16e-/LL]	.	16g/LL]	.	4BB-/	.	.
.	.	.	(16g/	.	(16b-/	.	.	.	.
8BB-/J	x 5nr 2	.	16c/)	.	16an/	.	.	8cc\	8aan\
.	.	.	(16e-/JJ	.	16cc/JJ)|<	.	.	.	.
=36	=36	=36	=36	=36	=36	=36	=36	=36	=36
!LO:LB:g=original	!	!	!	!	!	!	!	!LO:LB:g=original	!LO:SIC:v:o=8qqaa-/
.	.	.	.	.	.	.	.	8qqcc/	8qqaan/
4BB-/	x 8 3	.	4d/)	.	(8b-T/L	.	2BB-/	2dd\	2bb-\
.	.	.	.	.	16an/L	.	.	.	.
.	.	.	.	.	16b-/JJ)	.	.	.	.
4BB-/	.	.	4B-/ 4d 4b-	.	4B-/	.	.	.	.
4C/	x x 7	.	4r	.	4r	.	4r	4r	4r
=37	=37	=37	=37	=37	=37	=37	=37	=37	=37
!	!	!	!	!	!LO:TUP:a:problem:klamra łukowa	!	!	!	!
!	!	!	!	!	!LO:TX:a:t=P:problem:mixed beam	!	!LO:TX:a:t=6	!	!
4D-X/	x x 6	.	(16d-X/LL	.	24B-/LL	.	0.r	2.ff\	[2.bb-\
.	.	.	.	.	24b-\	.	.	.	.
.	.	.	16f/)	.	.	.	.	.	.
.	.	.	.	.	24cc\	.	.	.	.
.	.	.	(16b-/	.	24dd-X\	.	.	.	.
.	.	.	.	.	24cc\	.	.	.	.
.	.	.	16f/JJ)	.	.	.	.	.	.
.	.	.	.	.	24b-\JJ	.	.	.	.
!	!	!	!	!	!LO:TUP:a:problem:klamra łukowa	!	!	!	!
4D-/	.	.	(16d-X/LL	.	24bb-\LL|>	.	.	.	.
.	.	.	.	.	24b-\	.	.	.	.
.	.	.	16f/)	.	.	.	.	.	.
.	.	.	.	.	24cc\	.	.	.	.
.	.	.	(16b-/	.	24dd-X\	.	.	.	.
.	.	.	.	.	24cc\	.	.	.	.
.	.	.	16f/JJ)	.	.	.	.	.	.
.	.	.	.	.	24b-\JJ	.	.	.	.
!	!	!	!	!	!LO:TUP:a:problem:klamra łukowa	!	!	!	!
!	!	!	!	!	!LO:TX:a:t=P:problem:mixed beam	!	!	!	!
4D-/	.	.	(16d-X/LL	.	24B-/LL|<	.	.	.	.
.	.	.	.	.	24b-\	.	.	.	.
.	.	.	16f/)	.	.	.	.	.	.
.	.	.	.	.	24cc\	.	.	.	.
.	.	.	(16b-/	.	24dd-X\	.	.	.	.
.	.	.	.	.	24cc\	.	.	.	.
.	.	.	16f/JJ)	.	.	.	.	.	.
.	.	.	.	.	24b-\JJ	.	.	.	.
=38	=38	=38	=38	=38	=38	=38	=38	=38	=38
!	!	!	!	!	!LO:TUP:a:problem:klamra łukowa	!	!	!	!
!	!	!	!	!	!LO:TX:a:t=P:problem:mixed beam	!	!	!	!
4C/	x 7 3n	.	(16en/LL	.	24c/LL|<	.	.	2.een\	2.bb-\]
.	.	.	.	.	24een\	.	.	.	.
.	.	.	16g/)	.	.	.	.	.	.
.	.	.	.	.	24ff\	.	.	.	.
.	.	.	(16cc/	.	24gg\	.	.	.	.
.	.	.	.	.	24ff\	.	.	.	.
.	.	.	16g/JJ)	.	.	.	.	.	.
.	.	.	.	.	24ee\JJ	.	.	.	.
!	!	!	!LO:LB:g=original	!	!LO:TUP:a:problem:klamra łukowa	!	!	!	!
4C/	.	.	(16en/LL	.	24bb-\LL|>	.	.	.	.
.	.	.	.	.	24een\	.	.	.	.
.	.	.	16g/)	.	.	.	.	.	.
.	.	.	.	.	24ff\	.	.	.	.
.	.	.	(16cc/	.	24gg\	.	.	.	.
.	.	.	.	.	24ff\	.	.	.	.
.	.	.	16g/JJ)	.	.	.	.	.	.
!	!	!	!	!	!LO:SIC:v:t=custos a	!	!	!	!
.	.	.	.	.	24een\JJ	.	.	.	.
!	!	!	!	!	!LO:TX:a:t=P:problem:mixed beam	!	!	!	!
!	!	!	!	!	!LO:TUP:a:problem:klamra łukowa	!	!	!	!
4C/	.	.	(16en/LL	.	24c/LL	.	.	.	.
.	.	.	.	.	24een\	.	.	.	.
.	.	.	16g/)	.	.	.	.	.	.
.	.	.	.	.	24ff\	.	.	.	.
.	.	.	(16cc/	.	24gg\	.	.	.	.
.	.	.	.	.	24ff\	.	.	.	.
.	.	.	16g/JJ)	.	.	.	.	.	.
.	.	.	.	.	24een\JJ	.	.	.	.
=39	=39	=39	=39	=39	=39	=39	=39	=39	=39
*	*	*	*Xbrackettup	*	*Xbrackettup	*	*	*	*
!	!	!	!LO:TUP:b:problem:klamra łukowa	!	!LO:TUP:a:problem:klamra łukowa	!	!	!	!
4C/	x 9- 7	.	24r	.	24r	.	.	(4dd-X\	(4bb-\
.	.	.	24b-/LL	.	24dd-X\LL	.	.	.	.
.	.	.	24a-/	.	24cc\	.	.	.	.
.	.	.	24g/	.	24b-\	.	.	.	.
.	.	.	24a-/	.	24cc\	.	.	.	.
.	.	.	24b-/JJ	.	24dd-X\JJ	.	.	.	.
!	!	!	!LO:TUP:b:problem:klamra łukowa	!	!LO:TUP:a:problem:klamra łukowa	!	!	!	!
4C/	x 8 6	.	24r	.	24r	.	.	4cc\)	4aa-\)
.	.	.	24a-/LL	.	24cc\LL	.	.	.	.
.	.	.	24g/	.	24b-\	.	.	.	.
.	.	.	24f/	.	24a-\	.	.	.	.
.	.	.	24g/	.	24b-\	.	.	.	.
.	.	.	24a-/JJ	.	24cc\JJ	.	.	.	.
!	!	!	!LO:TUP:b:problem:klamra łukowa	!	!LO:TUP:b:problem:klamra łukowa	!	!	!	!
4C/	x 7 5	.	24r	.	24r	.	.	4b-\|>	4gg\|>
.	.	.	24g/LL	.	24b-/LL	.	.	.	.
.	.	.	24f/	.	24a-/	.	.	.	.
.	.	.	24en/	.	24g/	.	.	.	.
.	.	.	24f/	.	24a-/	.	.	.	.
.	.	.	24g/JJ	.	24b-/JJ	.	.	.	.
=40	=40	=40	=40	=40	=40	=40	=40	=40	=40
.	.	.	.	.	.	.	.	8qqb-/	8qqgg/
!	!	!	!	!LO:DY:a:t=p&colon;	!	!	!	!	!
4F\	x 5 3	.	(16f/LL	p	(16a-\LL	.	.	4a-/	4ff\
.	.	.	16g/JJ)	.	16b-\JJ	.	.	.	.
!	!	!	!	!	!	!LO:DY:t=p&colon;	!	!	!
.	.	.	4a-/	.	4cc\)	p	.	.	.
4F\	x 6 4	.	.	.	.	.	.	4r	4r
.	.	.	(8b-/	.	(8dd-X\	.	.	.	.
4F\	x 7nr 2	.	8g/L)	.	8een\L)	.	.	4r	4r
.	x 8 3	.	8a-/J|<	.	8ff\J|>	.	.	.	.
=41	=41	=41	=41	=41	=41	=41	=41	=41	=41
4En\	x 7-r 5	.	24r	.	24r	.	1.r	(4b-/	(4dd-X\
!	!	!	!LO:TUP:a:problem:klamra łukowa	!LO:DY:t=for.	!LO:TUP:a:problem:klamra łukowa	!LO:DY:t=for&colon;	!	!	!
.	.	.	24b-/LL	f	24dd-X\LL	f	.	.	.
.	.	.	24a-/	.	24cc\	.	.	.	.
.	.	.	24g/	.	24b-\	.	.	.	.
.	.	.	24a-/	.	24cc\	.	.	.	.
.	.	.	24b-/JJ	.	24dd-X\JJ	.	.	.	.
4F\	x 5 3	.	24r	.	24r	.	.	4a-/)	4cc\)
!	!	!	!LO:TUP:a:problem:klamra łukowa	!	!LO:TUP:a:problem:klamra łukowa	!	!	!	!
.	.	.	24a-/LL	.	24cc\LL	.	.	.	.
.	.	.	24g/	.	24b-\	.	.	.	.
.	.	.	24f/	.	24a-\	.	.	.	.
.	.	.	24g/	.	24b-\	.	.	.	.
.	.	.	24a-/JJ	.	24cc\JJ	.	.	.	.
4C\	x 7 3n	.	24r	.	24r	.	.	4g/|<	4b-\|>
!	!	!	!	!	!LO:LB:g=original	!	!	!	!
!	!	!	!LO:TUP:a:problem:klamra łukowa	!	!LO:TUP:a:problem:klamra łukowa	!	!	!	!
.	.	.	24g/LL	.	24b-/LL	.	.	.	.
.	.	.	24f/	.	24a-/	.	.	.	.
.	.	.	24en/	.	24g/	.	.	.	.
.	.	.	24f/	.	24a-/	.	.	.	.
.	.	.	24g/JJ	.	24b-/JJ	.	.	.	.
=42	=42	=42	=42	=42	=42	=42	=42	=42	=42
!LO:TX:a:t=P:problem:mixed beam	!	!	!LO:LB:g=original	!	!	!	!	!	!LO:LB:g=original
.	.	.	.	.	.	.	.	8qqg/	.
8FF/L	.	.	(16f/LL	.	(16a-/LL	.	.	4f/	4a-/
.	.	.	16a-/)	.	16f/)	.	.	.	.
8F\	.	.	(16a-/	.	(16f/	.	.	.	.
.	.	.	16f/JJ)	.	16a-/JJ)	.	.	.	.
8E-X\	x 4nr 2	.	(16f/LL	.	(16an\LL	.	.	4r	4r
.	.	.	16an/)	.	16cc\)	.	.	.	.
8E-\	.	.	(16a/	.	(16cc\	.	.	.	.
.	.	.	16cc/JJ)	.	16ff\JJ)	.	.	.	.
8E-\	.	.	(16an/LL	.	(16ff\LL	.	.	4r	4r
.	.	.	16f/)	.	16aan\)	.	.	.	.
8E-\J	.	.	(16f/	.	(16aa\	.	.	.	.
.	.	.	16an/JJ)	.	16ccc\JJ)	.	.	.	.
=43	=43	=43	=43	=43	=43	=43	=43	=43	=43
!	!	!	!	!	!LO:TUP:a:problem:klamra łukowa	!	!LO:LB:g=original	!	!
(8D\L	x x 6	.	(8f/L	.	24bb-\LL	.	4BB-/	[2.bb-\	[2.bb-\
.	.	.	.	.	24b-\	.	.	.	.
.	.	.	.	.	24bb-\JJ	.	.	.	.
*	*	*	*	*	*Xtuplet	*	*	*	*
!	!	!	!	!	!LO:TUP:a:problem:klamra łukowa	!	!	!	!
8E-\	x x 5	.	8g/	.	24bb-\LL	.	.	.	.
.	.	.	.	.	24b-\	.	.	.	.
.	.	.	.	.	24bb-\JJ	.	.	.	.
!	!	!	!	!	!LO:TUP:a:problem:klamra łukowa	!	!	!	!
8F\)	x x 6	.	8a-X/)	.	24bb-\LL	.	4r	.	.
.	.	.	.	.	24b-\	.	.	.	.
.	.	.	.	.	24bb-\JJ	.	.	.	.
!	!	!	!	!	!LO:TUP:a:problem:klamra łukowa	!	!	!	!
8E-\|>	x x 5	.	8g/|<	.	24bb-\LL	.	.	.	.
.	.	.	.	.	24b-\	.	.	.	.
.	.	.	.	.	24bb-\JJ	.	.	.	.
!	!	!	!	!	!LO:TUP:a:problem:klamra łukowa	!	!	!	!
8D\|>	x x 6	.	8f/|<	.	24bb-\LL	.	4r	.	.
.	.	.	.	.	24b-\	.	.	.	.
.	.	.	.	.	24bb-\JJ	.	.	.	.
!	!	!	!	!	!LO:TUP:a:problem:klamra łukowa	!	!	!	!
8E-\J|>	x x 5	.	8g/J|<	.	24bb-\LL	.	.	.	.
.	.	.	.	.	24b-\	.	.	.	.
.	.	.	.	.	24bb-\JJ	.	.	.	.
=44	=44	=44	=44	=44	=44	=44	=44	=44	=44
!	!	!	!	!	!LO:TUP:a:problem:klamra łukowa	!	!	!	!
8F\L	x x 6	.	(8d/L	.	24bb-\LL	.	4BB-/	2.bb-\]	2.bb-\]
.	.	.	.	.	24b-\	.	.	.	.
.	.	.	.	.	24bb-\JJ	.	.	.	.
!	!	!	!	!	!LO:TUP:a:problem:klamra łukowa	!	!	!	!
8G\	x x 6	.	8e-/	.	24bb-\LL	.	.	.	.
.	.	.	.	.	24b-\	.	.	.	.
.	.	.	.	.	24bb-\JJ	.	.	.	.
!	!	!	!	!	!LO:TUP:a:problem:klamra łukowa	!	!	!	!
8A-\	x 4 2	.	8f/)	.	24bb-\LL	.	4r	.	.
.	.	.	.	.	24b-\	.	.	.	.
.	.	.	.	.	24bb-\JJ	.	.	.	.
!	!	!	!	!	!LO:TUP:a:problem:klamra łukowa	!	!	!	!
8G\|>	x x 6	.	8e-/|<	.	24bb-\LL	.	.	.	.
.	.	.	.	.	24b-\	.	.	.	.
.	.	.	.	.	24bb-\JJ	.	.	.	.
!	!	!	!	!	!LO:LB:g=original	!	!	!	!
!	!	!	!	!	!LO:TUP:a:problem:klamra łukowa	!	!	!	!
8F\|>	x x 6	.	8d/|<	.	24bb-\LL	.	4r	.	.
.	.	.	.	.	24b-\	.	.	.	.
.	.	.	.	.	24bb-\JJ	.	.	.	.
!	!	!	!	!	!LO:TUP:a:problem:klamra łukowa	!	!	!	!
8G\J	x x 6	.	8e-/J|<	.	24bb-\LL	.	.	.	.
.	.	.	.	.	24b-\	.	.	.	.
.	.	.	.	.	24bb-\JJ	.	.	.	.
=45	=45	=45	=45	=45	=45	=45	=45	=45	=45
!LO:LB:g=original	!	!	!	!LO:DY:t=p&colon;:rj	!LO:TUP:a:problem:klamra łukowa	!LO:DY:t=p&colon;	!	!LO:TX:a:t=2	!LO:TX:a:t=2
4r	.	.	8c/L 8e-	p	24aan\LL	p	2.r	1.r	1.r
.	.	.	.	.	24an\	.	.	.	.
.	.	.	.	.	24aa\JJ	.	.	.	.
!	!	!	!	!	!LO:TUP:a:problem:klamra łukowa	!	!	!	!
.	.	.	8c/ 8e-	.	24aa\LL	.	.	.	.
.	.	.	.	.	24an\	.	.	.	.
.	.	.	.	.	24aa\JJ	.	.	.	.
!	!	!	!	!	!LO:TUP:a:problem:klamra łukowa	!	!	!	!
4AAn/	x 7-r 5	.	8c/ 8e-	.	24gg-X\LL	.	.	.	.
.	.	.	.	.	24an\	.	.	.	.
.	.	.	.	.	24gg-X\JJ	.	.	.	.
!	!	!	!	!	!LO:TUP:a:problem:klamra łukowa	!	!	!	!
.	.	.	8c/ 8e-	.	24gg-\LL	.	.	.	.
.	.	.	.	.	24an\	.	.	.	.
.	.	.	.	.	24gg-\JJ	.	.	.	.
*	*	*	*	*	*tuplet	*	*	*	*
!	!	!	!	!	!LO:TUP:a:problem:klamra łukowa	!	!	!	!
4AA/	x 6 5	.	8c/ 8e-	.	24ff\LL	.	.	.	.
.	.	.	.	.	24an\	.	.	.	.
.	.	.	.	.	24ff\JJ	.	.	.	.
!	!	!	!	!	!LO:TUP:a:problem:klamra łukowa	!	!	!	!
.	.	.	8c/J 8e-	.	24ee-\LL	.	.	.	.
.	.	.	.	.	24an\	.	.	.	.
.	.	.	.	.	24ee-\JJ	.	.	.	.
=46	=46	=46	=46	=46	=46	=46	=46	=46	=46
!	!	!	!LO:TUP:b:problem:klamra łukowa	!	!LO:TUP:a:problem:klamra łukowa	!	!	!	!
2BB-/	x 6- 4	.	24g-X/LL	.	24ee-\LL	.	4r	.	.
.	.	.	24f/	.	24dd\	.	.	.	.
.	.	.	24e-/	.	24cc\	.	.	.	.
.	.	.	24d/	.	24b-\	.	.	.	.
.	.	.	24f/	.	24dd\	.	.	.	.
.	.	.	24e-/JJ	.	24cc\JJ	.	.	.	.
.	.	.	8qqe-/	.	8qqcc/	.	.	.	.
.	x 5 3	.	4d/	.	4b-\	.	4BB-/	.	.
4r	.	.	4r	.	4r	.	4BB-/	.	.
=47	=47	=47	=47	=47	=47	=47	=47	=47	=47
!	!	!	!	!	!	!LO:DY:t=for	!	!	!
8E-\L	.	.	(16G/LL	.	(16e-/LL	f	4E-/	2.g/	2.b-/
.	.	.	16B-/)	.	16B-/J)	.	.	.	.
8E-\	.	.	(16e-/	.	8.g/J	.	.	.	.
.	.	.	16B-/JJ)	.	.	.	.	.	.
8E-\	.	.	(16G/LL	.	.	.	4r	.	.
.	.	.	16B-/)	.	16e-/KL|<	.	.	.	.
8E-\	.	.	(16e-/	.	8.b-/J	.	.	.	.
.	.	.	16B-/JJ)	.	.	.	.	.	.
!	!	!	!LO:LB:g=original	!	!	!	!	!	!
8E-\	.	.	(16G/LL	.	.	.	4r	.	.
.	.	.	16B-/)	.	16g/KL	.	.	.	.
8E-\J	.	.	(16e-/	.	[>8ee-/J	.	.	.	.
.	.	.	16B-/JJ)	.	.	.	.	.	.
=48	=48	=48	=48	=48	=48	=48	=48	=48	=48
!	!	!	!	!	!	!	!	!LO:LB:g=original	!
8E-\L	.	.	(16G/LL	.	16ee-\LL]	.	4E-/	2.b-/	2.gg\
.	.	.	16B-/)	.	16b-\J|>	.	.	.	.
8E-\	.	.	(16e-/	.	8.gg\J	.	.	.	.
.	.	.	16B-/JJ)	.	.	.	.	.	.
8E-\	.	.	(16G/LL	.	.	.	4r	.	.
.	.	.	16B-/)	.	16ee-\KL	.	.	.	.
8E-\	.	.	(16e-/	.	[8bb-\J	.	.	.	.
.	.	.	16B-/JJ)	.	.	.	.	.	.
!	!	!	!	!	!LO:LB:g=original	!	!	!	!
8E-\	.	.	(16G/LL	.	16bb-\LL]	.	4r	.	.
.	.	.	16B-/)	.	(16gg\	.	.	.	.
8E-\J	.	.	(16e-/	.	16ee-\)	.	.	.	.
.	.	.	16B-/JJ)	.	16b-\JJ|>	.	.	.	.
=49	=49	=49	=49	=49	=49	=49	=49	=49	=49
8E-\L	x 6 4	.	(16A-/LL	.	16r	.	4E-/	2cc\	2aa-\
.	.	.	16c/)	.	16cc\|>	.	.	.	.
!	!	!	!	!	!LO:TUP:a:problem:klamra łukowa	!	!	!	!
.	.	.	.	.	8qqdd-X/	.	.	.	.
!	!	!	!	!	!LO:TUP:a:problem:klamra łukowa	!	!	!	!
8E-\	.	.	(16e-/	.	24cc\LL	.	.	.	.
.	.	.	.	.	24bn\	.	.	.	.
.	.	.	16c/JJ)	.	.	.	.	.	.
.	.	.	.	.	24cc\JJ	.	.	.	.
8E-\	.	.	(16A-/LL	.	16r	.	4E-/	.	.
.	.	.	16c/)	.	16ee-\|>	.	.	.	.
.	.	.	.	.	8qqff/	.	.	.	.
!	!	!	!	!	!LO:TUP:a:problem:klamra łukowa	!	!	!	!
8E-\	.	.	(16e-/	.	24ee-\LL	.	.	.	.
.	.	.	.	.	24ddn\	.	.	.	.
.	.	.	16c/JJ)	.	.	.	.	.	.
.	.	.	.	.	24ee-\JJ	.	.	.	.
8E-\	.	.	(16A-/LL	.	16r	.	4E-/	4cc\	4aa-\
.	.	.	16c/)	.	16aa-\|>	.	.	.	.
.	.	.	.	.	8qqbb-/	.	.	.	.
!	!	!	!	!	!LO:TUP:a:problem:klamra łukowa	!	!	!	!
8E-\J	.	.	(16e-/	.	24aa-\LL	.	.	.	.
.	.	.	.	.	24gg\	.	.	.	.
.	.	.	16c/JJ)	.	.	.	.	.	.
.	.	.	.	.	24aa-\JJ	.	.	.	.
=50	=50	=50	=50	=50	=50	=50	=50	=50	=50
.	.	.	.	.	8qqdd-X/	.	.	8qqdd-X/	8qqbb-/
8E-\L	x 6 4	.	(16A-/LL	.	4cct\	.	4E-/	(4cct\	(4aa-T\
.	.	.	16c/)	.	.	.	.	.	.
8E-\	.	.	(16e-/	.	.	.	.	.	.
.	.	.	16c/JJ)	.	.	.	.	.	.
8E-\	x x 3	.	(16G/LL	.	4b-X/	.	4E-/	4b-\)	4gg\)
.	.	.	16B-/)	.	.	.	.	.	.
8E-\	.	.	(16e-/	.	.	.	.	.	.
.	.	.	16B-/JJ)	.	.	.	.	.	.
8E-\	.	.	(16G/LL	.	(16gg\LL	.	4r	4r	4r
.	.	.	16B-/)	.	16aa-\JJ	.	.	.	.
!	!	!	!	!	!LO:N:vis=4	!	!	!	!
8E-\J	.	.	(16e-/	.	8bb-\)	.	.	.	.
.	.	.	16B-/JJ)	.	.	.	.	.	.
=51	=51	=51	=51	=51	=51	=51	=51	=51	=51
8BB-/L	x x 7	.	(16d/LL	.	(16aa-\LL	.	4r	8r	8r
.	.	.	16f/)	.	16ff\	.	.	.	.
8BB-/	.	.	(16b-/	.	16dd\)	.	.	(16dd\LL	(16ff\LL
.	.	.	16f/JJ)	.	16b-\JJ	.	.	16ff\JJ)	16aa-\JJ)
!	!	!	!LO:LB:g=original	!	!	!	!	!	!
8BB-/	.	.	(16d/LL	.	16a-/LL	.	4BB-/	2ffT\	2aa-T\
.	.	.	16f/)	.	(16f/	.	.	.	.
8BB-/	.	.	(16b-/	.	16d/	.	.	.	.
.	.	.	16f/JJ)	.	16B-/JJ)	.	.	.	.
.	.	.	.	.	8qqB-/	.	.	.	.
8BB-/	.	.	(16d/LL	.	4A-T/	.	4BB-/	.	.
.	.	.	16f/)	.	.	.	.	.	.
8BB-/J	.	.	(16b-/	.	.	.	.	.	.
.	.	.	16f/JJ)	.	.	.	.	.	.
=52	=52	=52	=52	=52	=52	=52	=52	=52	=52
8E-\L	.	.	8G/ 8e-|>	.	16G/LL|<	.	4r	8r	8r
.	.	.	.	.	16e-/|<	.	.	.	.
8E-\	.	.	4G/ 4e-	.	16B-/|<	.	.	(16ee-\LL	(16gg\LL
.	.	.	.	.	16g/JJ|<	.	.	16gg\JJ)	16bb-\JJ)
8E-\	.	.	.	.	16e-/LL|<	.	4E-/	2ggt\	2bb-T\
.	.	.	.	.	16b-/|<	.	.	.	.
8E-\	.	.	4G/ 4e-	.	16g/|<	.	.	.	.
.	.	.	.	.	16ee-/JJ|<	.	.	.	.
8E-\	.	.	.	.	16b-\LL|>	.	4E-/	.	.
.	.	.	.	.	16gg\|>	.	.	.	.
8E-\J	.	.	8G/ 8e-	.	16ee-\|>	.	.	.	.
.	.	.	.	.	16bb-\JJ|>	.	.	.	.
=53	=53	=53	=53	=53	=53	=53	=53	=53	=53
!LO:LB:g=original	!	!	!	!	!	!	!	!	!
!LO:TX:a:t=P:problem:mixed beam	!	!	!	!	!LO:LB:g=original	!	!LO:LB:g=original	!	!
8B-\L	x x 7	.	(16d/LL	.	(16aa-\LL	.	4r	8r	8r
.	.	.	16f/)	.	16ff\	.	.	.	.
8BB-/	.	.	(16b-/	.	16dd\)	.	.	8ff\|>	8aa-\
.	.	.	16f/JJ)	.	16b-\JJ	.	.	.	.
8BB-/	.	.	(16d/LL	.	16a-/LL	.	4BB-/	2ffT\	2aa-T\
.	.	.	16f/)	.	(16f/	.	.	.	.
8BB-/	.	.	(16b-/	.	16d/	.	.	.	.
.	.	.	16f/JJ)	.	16B-/JJ)	.	.	.	.
.	.	.	.	.	8qqB-/	.	.	.	.
8BB-/	.	.	(16d/LL	.	4A-T/	.	4BB-/	.	.
.	.	.	16f/)	.	.	.	.	.	.
8BB-/J	.	.	(16b-/	.	.	.	.	.	.
.	.	.	16f/JJ)	.	.	.	.	.	.
=54	=54	=54	=54	=54	=54	=54	=54	=54	=54
.	.	.	.	.	.	.	.	8qqff/	.
!	!	!	!	!	!	!	!	!	!LO:LB:g=original
4E-\	.	.	2e-/	.	8G/L|<	.	4E-/	2.ee-\	8gg\L
.	.	.	.	.	8b-/	.	.	.	8bb-\
4C/	x x 6	.	.	.	(8a-/	.	4r	.	(8aa-\
.	.	.	.	.	8g/	.	.	.	8gg\
4AA-/	x 6 5	.	4c/	.	8f/	.	4r	.	8ff\
.	.	.	.	.	8e-/J)	.	.	.	8ee-\J)
=55	=55	=55	=55	=55	=55	=55	=55	=55	=55
!	!	!	!	!	!LO:TX:a:t=P:problem:mixed beam	!	!	!	!
4BB-/	.	.	(8.B-/L	.	8d/L|<	.	1.r	4dd\	4b-/
.	.	.	.	.	(8bb-\	.	.	.	.
.	.	.	32c/LL	.	.	.	.	.	.
.	.	.	32d/JJJ)	.	.	.	.	.	.
!	!	!	!	!	!	!LO:DY:t=p&colon;	!	!	!
4C/	x x 6	.	4e-/	.	8aa-\	p	.	4r	4r
.	.	.	.	.	8gg\	.	.	.	.
4AA-/	x 6 5	.	8r	.	8ff\)	.	.	4r	4r
.	.	.	8c/	.	8ee-\J	.	.	.	.
=56	=56	=56	=56	=56	=56	=56	=56	=56	=56
!	!	!	!	!LO:DY:a:t=for&colon;	!	!LO:DY:t=for.	!	!LO:TX:a:t=2	!LO:TX:a:t=2
4BB-/	.	.	(8.B-/L	f	8dd\L|>	f	.	1.r	1.r
.	.	.	.	.	(8b-\	.	.	.	.
.	.	.	32c/LL	.	.	.	.	.	.
.	.	.	32d/JJJ)	.	.	.	.	.	.
4C/	x x 6	.	4e-/	.	8a-\	.	.	.	.
.	.	.	.	.	8g\	.	.	.	.
4AA-/	x 6 5	.	8r	.	8f\	.	.	.	.
.	.	.	8c/	.	8e-\J)	.	.	.	.
=57	=57	=57	=57	=57	=57	=57	=57	=57	=57
!	!	!	!LO:TX:a:t=P:problem:mixed beam	!	!	!	!	!	!
!	!	!	!LO:TX:a:t=|	!	!	!	!	!	!
8BB-/	.	.	8B-/L|<	.	8B-/L 8d	.	4BB-/	.	.
!	!	!	!LO:TUP:a:problem:klamra łukowa	!	!LO:TUP:a:problem:klamra łukowa	!	!	!	!
8r	.	.	24dd\L	.	24ff\L	.	.	.	.
.	.	.	24ee-\	.	24gg\	.	.	.	.
.	.	.	24b-\JJ	.	24aan\JJ	.	.	.	.
8BB-/	.	.	8dd\L|>	.	8bb-\L	.	4BB-/	.	.
!	!	!	!LO:TUP:a:problem:klamra łukowa	!	!LO:TUP:a:problem:klamra łukowa	!	!	!	!
8r	.	.	24dd\L	.	24ff\L	.	.	.	.
.	.	.	24ee-\	.	24gg\	.	.	.	.
.	.	.	24b-\JJ	.	24aan\JJ	.	.	.	.
!	!	!	!LO:LB:g=original	!	!	!	!	!	!
8BB-/	.	.	8dd\L|>	.	8bb-\L	.	4BB-/	.	.
!	!	!	!LO:TUP:a:problem:klamra łukowa	!	!LO:TUP:a:problem:klamra łukowa	!	!	!	!
8r	.	.	24dd\L	.	24ff\L	.	.	.	.
.	.	.	24ee-\	.	24gg\	.	.	.	.
.	.	.	24cc\JJ	.	24aan\JJ	.	.	.	.
=58	=58	=58	=58	=58	=58	=58	=58	=58	=58
!	!	!	!	!	!	!	!	!	!LO:TX:a:t=Solo.
4BB-/	.	.	4B-/ 4f 4dd	.	4B-/ 4f 4dd 4bb-	.	4BB-/	4r	4r
4r	.	.	4r	.	4r	.	4r	(16g/LL	16ee-T\LL
.	.	.	.	.	.	.	.	16f/	(16dd\
.	.	.	.	.	.	.	.	16g/)	16ee-\)
.	.	.	.	.	.	.	.	16b-/JJ|<	16ff\JJ|>
4r	.	.	4r	.	4r	.	4r	(16ee-\LL	16ggt\LL
.	.	.	.	.	.	.	.	16dd\	(16ff\
.	.	.	.	.	.	.	.	16ee-\)	16gg\)
.	.	.	.	.	.	.	.	16ff\JJ|>	16aa-\JJ|>
=59	=59	=59	=59	=59	=59	=59	=59	=59	=59
!	!	!	!	!	!	!LO:DY:t=pia&colon;	!LO:TX:a:t=12	!LO:LB:g=original	!
4E-\	.	.	4e-/	.	4e-/	p	0.r	(4gg\	(4bb-\
!	!	!LO:DY:t=pia.	!	!LO:DY:t=p&colon;	!	!	!	!	!
4F\	x x 6	p	4f/	p	4f/	.	.	4ff\)	4aa-\)
8G\L	x x 6	.	8g/L	.	8g/L	.	.	4ee-\|>	4gg\|>
8A-\J	.	.	8a-/J	.	8a-/J	.	.	.	.
=60	=60	=60	=60	=60	=60	=60	=60	=60	=60
.	.	.	.	.	.	.	.	8qqee-/	8qqgg/
4B-\	.	.	(4b-/	.	(4b-/	.	.	2dd\	2ff\
4A-\	x 4 2	.	4a-/	.	4a-/)	.	.	.	.
!	!	!	!LO:TX:a:t=|	!	!	!	!	!	!
4G\	x x 6\	.	4g/)|<	.	4g/|<	.	.	4een\	4gg\
=61	=61	=61	=61	=61	=61	=61	=61	=61	=61
!	!	!	!	!	!LO:LB:g=original	!	!	!	!
2F\	.	.	2f/	.	2f/	.	.	16ff\LL	(16aa-\LL
.	.	.	.	.	.	.	.	(16gg\	16bb-\
.	.	.	.	.	.	.	.	16ff\	16aa-\
.	.	.	.	.	.	.	.	16gg\JJ	16bb-\JJ)
.	.	.	.	.	.	.	.	8aa-\L)	8ccc\L
.	.	.	.	.	.	.	.	(8ff\|>	8aa-\
4G\	x x 6-	.	4g/	.	4g/	.	.	8ee-\	8ggt\
.	.	.	.	.	.	.	.	8dd\J)	8ff\J
=62	=62	=62	=62	=62	=62	=62	=62	=62	=62
.	.	.	.	.	.	.	.	8qqdd/	8qqff/
4A-\	.	.	(4a-/	.	(4a-/	.	.	2cc\	2ee-\
4G\	x 4 2	.	4g/)|<	.	4g/)	.	.	.	.
4F\	x x 6	.	4f/|<	.	4f/|<	.	.	4dd\	4ff\
=63	=63	=63	=63	=63	=63	=63	=63	=63	=63
!LO:LB:g=original	!	!	!	!	!	!	!	!	!
4E-\	.	.	4e-/	.	4e-/	.	0.r	(16dd\LL	(16ff#X\LL
.	.	.	.	.	.	.	.	16ee-\JJ)	16gg\JJ)
.	.	.	.	.	.	.	.	4gg\	4bb-\
4AA-/	x 9 7	.	4A-/	.	4A-/	.	.	.	.
.	x 8 6	.	.	.	.	.	.	4ff\	4aa-\
8r	.	.	8r	.	8r	.	.	.	.
8AAn/	n 7 5	.	8A-/	.	8An/	.	.	8ee-\	8gg\
=64	=64	=64	=64	=64	=64	=64	=64	=64	=64
!	!	!	!	!	!	!	!	!	!LO:LB:g=original
4BB-/	x 6 4	.	4B-/	.	4B-/	.	.	8gg\L	8bb-\L
.	.	.	.	.	.	.	.	(32ff\LL	(32aa-\LL
.	.	.	.	.	.	.	.	32ee-\	32gg\
.	.	.	.	.	.	.	.	32dd\	32ff\)
.	.	.	.	.	.	.	.	32ee-\JJJ)	32gg\JJJ
.	.	.	.	.	.	.	.	8qee-/	8qqgg/
4B-\	x 5 3	.	4b-\	.	4b-\	.	.	4dd\	4ff\
4r	.	.	4r	.	4r	.	.	4r	4r
=65	=65	=65	=65	=65	=65	=65	=65	=65	=65
!LO:TX:a:t=6	!	!	!LO:TX:a:t=6	!	!LO:TX:a:t=5	!	!	!LO:TX:a:t=6	!LO:TX:a:t=6.
0.r	.	.	0.r	.	0.r	.	.	0.r	0.r
=66	=66	=66	=66	=66	=66	=66	=66	=66	=66
.	.	.	.	.	.	.	.	.	.
=67	=67	=67	=67	=67	=67	=67	=67	=67	=67
.	.	.	.	.	.	.	0.r	.	.
=68	=68	=68	=68	=68	=68	=68	=68	=68	=68
.	.	.	.	.	.	.	.	.	.
=69	=69	=69	=69	=69	=69	=69	=69	=69	=69
1.r	.	.	1.r	.	2.r	.	.	1.r	1.r
=70	=70	=70	=70	=70	=70	=70	=70	=70	=70
.	.	.	.	.	4r	.	.	.	.
.	.	.	.	.	4r	.	.	.	.
.	.	.	.	.	32r	.	.	.	.
!	!	!	!	!	!LO:TUP:a:problem:klamra łukowa	!	!	!	!
.	.	.	.	.	32b-\LLL	.	.	.	.
.	.	.	.	.	32cc\	.	.	.	.
.	.	.	.	.	32dd\	.	.	.	.
.	.	.	.	.	32ee-\	.	.	.	.
!	!	!	!	!	!	!LO:DY:t=for&colon;	!	!	!
.	.	.	.	.	32ff\	f	.	.	.
.	.	.	.	.	32gg\	.	.	.	.
.	.	.	.	.	32aan\JJJ	.	.	.	.
=71	=71	=71	=71	=71	=71	=71	=71	=71	=71
!	!	!	!	!LO:DY:t=for.:rj	!	!	!	!	!
8BB-/L	x x 7	.	8A-/ 8d	f	(16bb-\LL	.	4BB-/	[2.dd\	[2.ff\
.	.	.	.	.	16ff\)	.	.	.	.
8BB-/	.	.	4A-/ 4d	.	(16bb-\	.	.	.	.
.	.	.	.	.	16dd\JJ)	.	.	.	.
8BB-/	.	.	.	.	(16ff\LL	.	4BB-/	.	.
.	.	.	.	.	16b-\)	.	.	.	.
8BB-/	.	.	4A-/ 4d	.	(16dd\	.	.	.	.
.	.	.	.	.	16f\JJ)	.	.	.	.
8BB-/	.	.	.	.	(16b-/LL	.	4BB-/	.	.
.	.	.	.	.	16d/)	.	.	.	.
8BB-/J	.	.	8A-/ 8d	.	(16f/	.	.	.	.
.	.	.	.	.	16B-/JJ)	.	.	.	.
=72	=72	=72	=72	=72	=72	=72	=72	=72	=72
*tremolo	*	*	*	*	*	*	*	*	*
8BB-/L	x x 7	.	(16bb-\LL	.	8A-/ 8d	.	4BB-/	2.dd\]	2.ff\]
.	.	.	16ff\)	.	.	.	.	.	.
8BB-/	.	.	(16bb-\	.	4A-/ 4d	.	.	.	.
.	.	.	16dd\JJ)	.	.	.	.	.	.
8BB-/	.	.	(16ff\LL	.	.	.	4r	.	.
.	.	.	16b-\)	.	.	.	.	.	.
8BB-/	.	.	(16dd\	.	4A-/ 4d	.	.	.	.
.	.	.	16f\JJ)	.	.	.	.	.	.
!	!	!	!LO:LB:g=original	!	!	!	!	!	!
8BB-/	.	.	(16b-/LL	.	.	.	4r	.	.
.	.	.	16d/)	.	.	.	.	.	.
8BB-/J	.	.	(16f/	.	8A-/ 8d	.	.	.	.
.	.	.	16B-/JJ)	.	.	.	.	.	.
=73	=73	=73	=73	=73	=73	=73	=73	=73	=73
!LO:LB:g=original	!	!	!	!	!	!	!	!	!
8BB-/L	x 6 4	.	8G/ 8e-	.	(16bb-\LL	.	4BB-/	[2.ee-\	[2.gg\
.	.	.	.	.	16gg\)	.	.	.	.
8BB-/	.	.	4G/ 4e-	.	(16bb-\	.	.	.	.
.	.	.	.	.	16ee-\JJ)	.	.	.	.
8BB-/	.	.	.	.	(16gg\LL	.	4BB-/	.	.
.	.	.	.	.	16b-\)	.	.	.	.
8BB-/	.	.	4G/ 4e-	.	(16ee-\	.	.	.	.
.	.	.	.	.	16g\JJ)	.	.	.	.
8BB-/	.	.	.	.	(16b-/LL	.	4BB-/	.	.
.	.	.	.	.	16e-/)	.	.	.	.
8BB-/J	.	.	8G/ 8e-	.	(16g/	.	.	.	.
.	.	.	.	.	16B-/JJ)	.	.	.	.
=74	=74	=74	=74	=74	=74	=74	=74	=74	=74
!	!	!	!	!	!	!	!	!LO:LB:g=original	!
8BB-/L	x 6 4	.	(16bb-\LL	.	8G/ 8e-	.	4BB-/	2.ee-\]	2.gg\_
.	.	.	16gg\)	.	.	.	.	.	.
8BB-/	.	.	(16bb-\	.	4G/ 4e-	.	.	.	.
.	.	.	16ee-\JJ)	.	.	.	.	.	.
8BB-/	.	.	(16gg\LL	.	.	.	4r	.	.
.	.	.	16b-\)	.	.	.	.	.	.
8BB-/	.	.	(16ee-\	.	4G/ 4e-	.	.	.	.
.	.	.	16g\JJ)	.	.	.	.	.	.
8BB-/	.	.	(16b-/LL	.	.	.	4r	.	.
.	.	.	16e-/)	.	.	.	.	.	.
8BB-/J	.	.	(16g/	.	8G/ 8e-	.	.	.	.
.	.	.	16B-/JJ)	.	.	.	.	.	.
=	=	=	=	=	=	=	=	=	=
!	!	!	!	!	!	!	!	!	!LO:TX:t=P:problem:zbędny takt
2.ryy	.	.	2.ryy	.	2.ryy	.	2.ryy	2.ryy	2.gg\]
=75	=75	=75	=75	=75	=75	=75	=75	=75	=75
!	!	!	!	!	!LO:LB:g=original	!	!LO:LB:g=original	!	!
8BB-/L	x 7 3	.	8A-/ 8d	.	(16aa-\LL	.	4BB-/	[2.ff\	[2.aa-\
.	.	.	.	.	16ff\)	.	.	.	.
8BB-/	.	.	4A-/ 4d	.	(16aa-\	.	.	.	.
.	.	.	.	.	16dd\JJ)	.	.	.	.
8BB-/	.	.	.	.	(16ff\LL	.	4BB-/	.	.
.	.	.	.	.	16b-\)	.	.	.	.
8BB-/	.	.	4A-/ 4d	.	(16dd\	.	.	.	.
.	.	.	.	.	16f\JJ)	.	.	.	.
8BB-/	.	.	.	.	(16a-/LL	.	4BB-/	.	.
.	.	.	.	.	16d/)	.	.	.	.
8BB-/J	.	.	8A-/ 8d	.	(16f/	.	.	.	.
.	.	.	.	.	16B-/JJ)	.	.	.	.
=76	=76	=76	=76	=76	=76	=76	=76	=76	=76
8BB-/L	x x 7	.	(16aa-\LL	.	8A-/ 8d	.	4BB-/	2.ff\]	2.aa-\]
.	.	.	16ff\)	.	.	.	.	.	.
8BB-/	.	.	(16aa-\	.	4A-/ 4d	.	.	.	.
.	.	.	16dd\JJ)	.	.	.	.	.	.
8BB-/	.	.	(16ff\LL	.	.	.	4BB-/	.	.
.	.	.	16b-\)	.	.	.	.	.	.
8BB-/	.	.	(16dd\	.	4A-/ 4d	.	.	.	.
.	.	.	16f\JJ)	.	.	.	.	.	.
8BB-/	.	.	(16a-/LL	.	.	.	4BB-/	.	.
.	.	.	16d/)	.	.	.	.	.	.
8BB-/J	.	.	(16f/	.	8A-/ 8d	.	.	.	.
.	.	.	16B-/JJ)	.	.	.	.	.	.
=77	=77	=77	=77	=77	=77	=77	=77	=77	=77
8E-\L	.	.	8B-/|>	.	8G/ 8e-	.	4E-/	8ee-\	8gg\
8E-\	.	.	(4g/	.	(4b-\	.	.	4gg\	4bb-\
8E-\	.	.	.	.	.	.	4r	.	.
8E-\	.	.	4a-/	.	4cc\	.	.	4aa-\	4ccc\
8E-\	.	.	.	.	.	.	4r	.	.
8E-\J	.	.	8f/)	.	8dd\)	.	.	8ff\	8dd\
=78	=78	=78	=78	=78	=78	=78	=78	=78	=78
!	!	!	!	!	!LO:TUP:a:problem:klamra łukowa	!	!	!	!
8E-\L	.	.	8g/|<	.	24ee-\LL	.	4E-/	8gg\	8ee-\
.	.	.	.	.	24dd\	.	.	.	.
.	.	.	.	.	24cc\JJ	.	.	.	.
8E-\	.	.	4g/	.	(4b-\	.	.	4gg\	4bb-\
8E-\	.	.	.	.	.	.	4r	.	.
8E-\	.	.	(4a-/	.	4cc\	.	.	4aa-\	4ccc\
8E-\	.	.	.	.	.	.	4r	.	.
8E-\J	.	.	8f/)	.	8dd\)	.	.	8ff\	8dd\
*Xtremolo	*	*	*	*	*	*	*	*	*
=79	=79	=79	=79	=79	=79	=79	=79	=79	=79
!LO:TX:a:t=P:problem:mixed beam	!	!	!	!	!	!	!	!	!LO:LB:g=original
8E-\L	.	.	8g/L	.	(16ee-\LL	.	4E-/	8gg\L	8ee-\L
.	.	.	.	.	16b-\)	.	.	.	.
8A-\	x 6 5	.	8e-/J	.	(16cc\	.	.	8ff\J	8ff\J
.	.	.	.	.	16e-\JJ)	.	.	.	.
8B-\	x 6 4	.	4e-/	.	4B-/|<	.	4BB-/	4ee-\	4gg\
8B-\	.	.	.	.	.	.	.	.	.
.	.	.	.	.	8qqg/	.	.	.	.
8BB-/	x x 7	.	4dt/	.	4fT/	.	4BB-/	4ddt\	4ffT\
8BB-/J	x x 3	.	.	.	.	.	.	.	.
=80	=80	=80	=80	=80	=80	=80	=80	=80	=80
!	!	!	!LO:LB:g=original	!	!	!	!	!LO:TX:a:t=Solo	!LO:TX:b:t=Solo.
4E-\	.	.	4G/ 4e- 4b- 4gg	.	4G/ 4e- 4b- 4gg	.	4E-/	8ee-\	8ee-\
.	.	.	.	.	.	.	.	4gg\	4bb-\
4r	.	.	4r	.	4r	.	4r	.	.
.	.	.	.	.	.	.	.	(16gg\LL	(16bb-\LL
.	.	.	.	.	.	.	.	16aa-\JJ)	16ccc\JJ)
4r	.	.	4r	.	4r	.	4r	8gg\L	8bb-\L
.	.	.	.	.	.	.	.	8ff\J	8aa-\J
=81	=81	=81	=81	=81	=81	=81	=81	=81	=81
4E-\	.	.	4G/ 4e- 4b- 4gg	.	4G/ 4e- 4b- 4gg	.	4E-/	(16ff\LL	(16aa-\LL
.	.	.	.	.	.	.	.	16ee-\JJ)	16gg\JJ)
.	.	.	.	.	.	.	.	4b-\	4gg\
4r	.	.	4r	.	4r	.	4r	.	.
.	.	.	.	.	.	.	.	(16b-\LL	(16gg\LL
.	.	.	.	.	.	.	.	16cc\JJ)	16aa-\JJ)
4r	.	.	4r	.	4r	.	4r	8b-/L	8gg\L
.	.	.	.	.	.	.	.	8a-/J	8ff\J
=82	=82	=82	=82	=82	=82	=82	=82	=82	=82
.	.	.	.	.	.	.	.	8qqa-/	8qqff/
4E-\	.	.	4G/ 4e- 4b- 4gg	.	4G/ 4e- 4b- 4gg	.	4E-/	4g/	4ee-\
4r	.	.	4r	.	4r	.	4r	4r	4r
4r	.	.	4r	.	4r	.	4r	4r	4r
=83	=83	=83	=83	=83	=83	=83	=83	=83	=83
!LO:LB:g=original	!	!	!	!	!	!	!	!	!
!LO:TX:a:t=i.	!	!	!LO:TX:a:t=1.	!	!LO:TX:a:t=1.	!	!	!LO:LB:g=original	!LO:TX:a:t=1.
2.r	.	.	2.r	.	2.r	.	2.r	2.r	2.r
=84	=84	=84	=84	=84	=84	=84	=84	=84	=84
!	!	!	!	!LO:DY:t=for.	!	!LO:DY:t=for&colon;	!	!	!
4E-\	.	.	8g/L	f	8e-/L	f	4E-/	4g/	4ee-\
.	.	.	(16.fT/L	.	(16.ddt\L	.	.	.	.
.	.	.	32g/JJk)	.	32ee-\JJk)	.	.	.	.
4r	.	.	8g/L|<	.	8b-\L	.	4r	4r	4r
.	.	.	(16.g/L	.	(16.b-T\L	.	.	.	.
.	.	.	32a-/JJk)	.	32cc\JJk)	.	.	.	.
4BB-/	x x 7	.	(8.d/L	.	(8.f/L	.	4BB-/	8.dd\L	(8.ff\L
.	.	.	32e-/LL	.	32g/LL	.	.	(32ee-\LL	32gg\LL
.	.	.	32f/JJJ)	.	32a-/JJJ)	.	.	32ff\JJJ)	32aa-\JJJ)
=85	=85	=85	=85	=85	=85	=85	=85	=85	=85
!	!	!	!	!	!LO:LB:g=original	!	!LO:LB:g=original	!	!
4E-\	.	.	8e-/L|<	.	8g\L|>	.	4E-/	4ee-\	4gg\
.	.	.	(16.fT/L	.	(16.ddt\L	.	.	.	.
.	.	.	32g/JJk)	.	32ee-\JJk)	.	.	.	.
4r	.	.	8g/L|<	.	8b-\L|>	.	4r	4r	4r
.	.	.	(16.gt/L	.	(16.b-T\L	.	.	.	.
.	.	.	32a-/JJk)	.	32cc\JJk)	.	.	.	.
4BB-/	x x 7	.	8.d/L|<	.	(8.f/L	.	4BB-/	8.dd\L	(8.ff\L
.	.	.	(32e-/LL	.	32g/LL	.	.	(32ee-\LL	32gg\LL
.	.	.	32f/JJJ)	.	32a-/JJJ)	.	.	32ff\JJJ)	32aa-\JJJ)
=86	=86	=86	=86	=86	=86	=86	=86	=86	=86
!LO:LB:g=original	!	!	!	!	!	!	!	!	!
!LO:TX:b:t=Tutt&colon;	!	!	!	!	!	!	!	!	!
!LO:TX:a:t=P:problem:mixed beam	!	!	!	!	!	!	!	!	!LO:LB:g=original
8E-\L	.	.	(16e-/LL	.	(16g/LL	.	4E-/	8.ee-\L	8gg\L
.	.	.	16g/)	.	16e-/)	.	.	.	.
8AA-/J	x 6 5	.	(16cc/	.	(16ee-/	.	.	.	8ccc\
.	.	.	16a-/JJ)	.	16cc/JJ)	.	.	16aa-\Jk	.
4BB-/	x 6 4	.	(16g/LL	.	(16b-/LL	.	4E-/	8gg\L	8bb-\
.	.	.	16e-/)	.	16g/)	.	.	.	.
.	.	.	(16f/	.	(16a-/	.	.	8ff\	8aa-\
.	.	.	16A-/JJ)	.	16f/JJ)	.	.	.	.
4BB-/	x x 7	.	(16B-/LL	.	(16g/LL	.	4BB-/	8ee-\	8gg\
.	.	.	16g/)	.	16e-/)	.	.	.	.
.	x x 3	.	(16A-/	.	(16f/	.	.	8dd\J	8ff\J
.	.	.	16f/JJ)	.	16d/JJ)	.	.	.	.
=87	=87	=87	=87	=87	=87	=87	=87	=87	=87
8E-\L	.	.	8e-T/L	.	8e-T/L	.	4E-/	4ee-\	4gg\
16G\L	.	.	16g/L	.	16g/L	.	.	.	.
16B-\JJ	.	.	16b-/JJ	.	16b-/JJ	.	.	.	.
!	!	!	!LO:LB:g=original	!	!	!	!	!	!
8B-\L	.	.	8b-T/L	.	8b-T/L	.	4BB-/	4r	4r
16G\L	.	.	16g/L	.	16g/L	.	.	.	.
16B-\JJ	.	.	16b-/JJ	.	16b-/JJ	.	.	.	.
8e-\L	.	.	8ee-T/L|<	.	8ee-\L|>	.	8E-/L	4r	4r
16G\L	.	.	16g/L	.	16g\L	.	8BB-/J	.	.
16B-\JJ	.	.	16b-/JJ	.	16b-\JJ	.	.	.	.
=88	=88	=88	=88	=88	=88	=88	=88	=88	=88
8E-\L	.	.	8e-T/L	.	8e-T/L	.	4E-/	4gg\	4bb-\
16G\L	.	.	16g/L	.	16g/L	.	.	.	.
16B-\JJ	.	.	16b-/JJ	.	16b-/JJ	.	.	.	.
8B-\L	.	.	8b-T/L	.	8b-T/L	.	4BB-/	4r	4r
16G\L	.	.	16g/L	.	16g/L	.	.	.	.
16B-\JJ	.	.	16b-/JJ	.	16b-/JJ	.	.	.	.
8e-\L	.	.	8ee-\L|>	.	8ee-\L|>	.	8E-/L	4r	4r
16G\L	.	.	16g\L	.	16g\L	.	8BB-/J	.	.
16B-\JJ	.	.	16b-\JJ	.	16b-\JJ	.	.	.	.
=89	=89	=89	=89	=89	=89	=89	=89	=89	=89
8E-\L|>	.	.	4G/ 4e- 4b- 4gg	.	4G/ 4e- 4b- 4gg	.	4E-/	8ee-\	8gg\
8BB-\|>	.	.	.	.	.	.	.	4g/	4b-/
8E-\|>	.	.	4G/ 4e- 4b- 4gg	.	4G/ 4e- 4b- 4gg	.	8E-/L	.	.
8BB-\|>	.	.	.	.	.	.	8E-/	4g/	4b-/
8E-\|>	.	.	4G/ 4e- 4b- 4gg	.	4G/ 4e- 4b- 4gg	.	8E-/	.	.
8BB-\J|>	.	.	.	.	.	.	8E-/J	8g/	8b-/
=90	=90	=90	=90	=90	=90	=90	=90	=90	=90
2EE-/	.	.	2G/ 2e- 2b- 2gg	.	2G/ 2e- 2b- 2gg	.	2E-/	2g/	2b-/
4r	.	.	4r	.	4r	.	4r	4r	4r
==	==	==	==	==	==	==	==	==	==
*-	*-	*-	*-	*-	*-	*-	*-	*-	*-
!!!system-decoration: [(g1)](s3)[(g2)](s6)
!!!RDF**kern: > = above
!!!RDF**kern: < = below
!!!RDF**kern: | = vertical stroke
!!!ENC: Berenika Jozajtis
!!!END: 2022-04-08
!!!ENC: Krzysztof Stępień
!!!END: 2022-05-09
